X:6
T:Son ar charpentour
T:(marche)
M:2/4
L:1/4
K:Bb
|:"Sib"FE/D/|"Solm"B,C/D/|[M:3/4]"Dom"E"Fa"F/>G F/E/|\
	[M:2/4]"Sib"FE/D/|"Solm"B,C/D/|[M:3/4]"Dom"E/>G/"Fa"F2:|
|:[M:2/4]"Fa"FF/C/|"Dom"EE/D/|[M:3/4]"Solm"B,/>B,/"Fa"C-C/D//E//|\
	[M:2/4]"Sib"FF/C/|"Dom"EE/D/|[M:3/4]"Fa"C/D//C//"Sib"B,2:|

